public/images/logo/icon.svg

<svg height="512" viewBox="0 0 512 512" width="512" xmlns="http://www.w3.org/2000/svg"><g fill="none" fill-rule="evenodd" transform="translate(10 40)"><path d="m431.294 167.947654.006383.009963c-.001064-.001661-.002128-.003321-.003192-.004981-.001064-.001661-.002127-.003322-.003191-.004982zm-283.11892-149.6619814c15.160296 8.421283 29.490632 19.0760587 41.728876 30.9186466 19.727538-3.5735885 40.068954-5.3756111 60.70503-5.3756111 61.77563 0 120.344369 16.208051 164.9069 45.6292422 23.076849 15.2435877 41.419482 33.3298037 54.512243 53.7611867 14.580797 22.766398 21.971871 47.248524 21.971871 73.481912 0 25.527807-7.391074 50.020086-21.971871 72.781408-13.092761 20.441535-31.435394 38.522674-54.512243 53.766262-44.562531 29.421191-103.126359 45.61909-164.9069 45.61909-20.636076 0-40.972581-1.802023-60.70503-5.370535-12.243155 11.837512-26.56858 22.497364-41.728876 30.918646-81.0022463 40.573427-148.17508.954311-148.17508.954311s62.4533504-53.030225 52.2973758-99.517331c-27.9436631-28.644545-43.0843157-63.192618-43.0843157-99.84728 0-35.964309 15.1455636-70.512382 43.0843157-99.162003 10.1542929-46.4743332-52.27669501-99.494693-52.29737066-99.5122506.01997589-.0117889 67.18487576-39.6181615 148.17507486.9543062z" fill="#db2323" fill-rule="nonzero"/><path d="m99.7669012 297.015365c-27.7995325-21.943411-44.4860023-50.023556-44.4860023-80.629047 0-70.229534 87.8628601-127.1618195 196.2471911-127.1618195s196.247191 56.9322855 196.247191 127.1618195c0 70.229533-87.86286 127.161819-196.247191 127.161819-26.71232 0-52.178121-3.45819-75.389272-9.721332l-16.969615 16.3925c-9.22061 8.90703-20.0279 16.967467-31.292936 23.319157-14.931686 7.34474-29.6764415 11.351929-44.2643598 12.574633.8229298-1.49856 1.5806982-3.01663 2.3941816-4.517549 17.0034972-31.372331 21.5904342-59.565725 13.7608124-84.580181z" fill="#fff"/><path d="m157.64186 244.775173c-15.970053 0-28.916338-12.903289-28.916338-28.820303 0-15.917013 12.946285-28.820302 28.916338-28.820302 15.970052 0 28.916338 12.903289 28.916338 28.820302 0 15.917014-12.946286 28.820303-28.916338 28.820303zm93.096503 0c-15.970053 0-28.916338-12.903289-28.916338-28.820303 0-15.917013 12.946285-28.820302 28.916338-28.820302 15.970052 0 28.916338 12.903289 28.916338 28.820302 0 15.917014-12.946286 28.820303-28.916338 28.820303zm93.096503 0c-15.970053 0-28.916338-12.903289-28.916338-28.820303 0-15.917013 12.946285-28.820302 28.916338-28.820302 15.970052 0 28.916338 12.903289 28.916338 28.820302 0 15.917014-12.946286 28.820303-28.916338 28.820303z" fill="#db2323" fill-rule="nonzero"/></g></svg>

<?xml version="1.0" encoding="UTF-8"?>
<svg width="512px" height="512px" viewBox="0 0 512 512" version="1.1" xmlns="http://www.w3.org/2000/svg" xmlns:xlink="http://www.w3.org/1999/xlink">
    <!-- Generator: Sketch 51 (57462) - http://www.bohemiancoding.com/sketch -->
    <title>Icon</title>
    <desc>Created with Sketch.</desc>
    <defs></defs>
    <g id="Icon--Copy" stroke="none" stroke-width="1" fill="none" fill-rule="evenodd">
        <g id="icon" transform="translate(10.000000, 40.000000)">
            <path d="M431.294,167.947654 L431.300383,167.957617 C431.299319,167.955956 431.298255,167.954296 431.297191,167.952636 C431.296127,167.950975 431.295064,167.949314 431.294,167.947654 Z M148.17508,18.2856726 C163.335376,26.7069556 177.665712,37.3617313 189.903956,49.2043192 C209.631494,45.6307307 229.97291,43.8287081 250.608986,43.8287081 C312.384616,43.8287081 370.953355,60.0367591 415.515886,89.4579503 C438.592735,104.701538 456.935368,122.787754 470.028129,143.219137 C484.608926,165.985535 492,190.467661 492,216.701049 C492,242.228856 484.608926,266.721135 470.028129,289.482457 C456.935368,309.923992 438.592735,328.005131 415.515886,343.248719 C370.953355,372.66991 312.389527,388.867809 250.608986,388.867809 C229.97291,388.867809 209.636405,387.065786 189.903956,383.497274 C177.660801,395.334786 163.335376,405.994638 148.17508,414.41592 C67.1728337,454.989347 0,415.370231 0,415.370231 C0,415.370231 62.4533504,362.340006 52.2973758,315.8529 C24.3537127,287.208355 9.2130601,252.660282 9.2130601,216.00562 C9.2130601,180.041311 24.3586237,145.493238 52.2973758,116.843617 C62.4516687,70.3692838 0.0206807877,17.348924 5.13654914e-06,17.3313664 C0.0199810259,17.3195775 67.1848809,-22.2867951 148.17508,18.2856726 Z" id="rocket" fill="#DB2323" fill-rule="nonzero"></path>
            <path d="M99.7669012,297.015365 C71.9673687,275.071954 55.2808989,246.991809 55.2808989,216.386318 C55.2808989,146.156784 143.143759,89.2244985 251.52809,89.2244985 C359.912421,89.2244985 447.775281,146.156784 447.775281,216.386318 C447.775281,286.615851 359.912421,343.548137 251.52809,343.548137 C224.81577,343.548137 199.349969,340.089947 176.138818,333.826805 L159.169203,350.219305 C149.948593,359.126335 139.141303,367.186772 127.876267,373.538462 C112.944581,380.883202 98.1998255,384.890391 83.6119072,386.113095 C84.434837,384.614535 85.1926054,383.096465 86.0060888,381.595546 C103.009586,350.223215 107.596523,322.029821 99.7669012,297.015365 Z" id="bubble" fill="#FFFFFF"></path>
            <path d="M157.64186,244.775173 C141.671807,244.775173 128.725522,231.871884 128.725522,215.95487 C128.725522,200.037857 141.671807,187.134568 157.64186,187.134568 C173.611912,187.134568 186.558198,200.037857 186.558198,215.95487 C186.558198,231.871884 173.611912,244.775173 157.64186,244.775173 Z M250.738363,244.775173 C234.76831,244.775173 221.822025,231.871884 221.822025,215.95487 C221.822025,200.037857 234.76831,187.134568 250.738363,187.134568 C266.708415,187.134568 279.654701,200.037857 279.654701,215.95487 C279.654701,231.871884 266.708415,244.775173 250.738363,244.775173 Z M343.834866,244.775173 C327.864813,244.775173 314.918528,231.871884 314.918528,215.95487 C314.918528,200.037857 327.864813,187.134568 343.834866,187.134568 C359.804918,187.134568 372.751204,200.037857 372.751204,215.95487 C372.751204,231.871884 359.804918,244.775173 343.834866,244.775173 Z" id="circles" fill="#DB2323" fill-rule="nonzero"></path>
        </g>
    </g>
</svg>
